assets/icons/warning.svg

<svg width="25" height="25" viewBox="0 0 25 25" fill="none" xmlns="http://www.w3.org/2000/svg">
<g id="warning">
<path id="iconDefault" fill-rule="evenodd" clip-rule="evenodd" d="M13.3968 4.41287C12.9936 3.73054 12.0064 3.73054 11.6032 4.41286L3.6906 17.8034C3.28027 18.4978 3.78083 19.375 4.58739 19.375H20.4126C21.2191 19.375 21.7197 18.4978 21.3094 17.8034L13.3968 4.41287ZM10.527 3.77695C11.414 2.27584 13.5859 2.27585 14.4729 3.77695L22.3855 17.1675C23.2882 18.6952 22.187 20.625 20.4126 20.625H4.58739C2.81296 20.625 1.71173 18.6951 2.61444 17.1675L10.527 3.77695ZM12.5 7.70832C12.8452 7.70832 13.125 7.98814 13.125 8.33332V13.3333C13.125 13.6785 12.8452 13.9583 12.5 13.9583C12.1548 13.9583 11.875 13.6785 11.875 13.3333V8.33332C11.875 7.98814 12.1548 7.70832 12.5 7.70832ZM12.5 16.0417C12.8452 16.0417 13.125 16.3215 13.125 16.6667V16.8333C13.125 17.1785 12.8452 17.4583 12.5 17.4583C12.1548 17.4583 11.875 17.1785 11.875 16.8333V16.6667C11.875 16.3215 12.1548 16.0417 12.5 16.0417Z" fill="#18303F"/>
</g>
</svg>

<svg width="25" height="25" viewBox="0 0 25 25" fill="none"><g id="warning"><path id="iconDefault" fill-rule="evenodd" clip-rule="evenodd" d="M13.397 4.413a1.042 1.042 0 0 0-1.794 0l-7.912 13.39c-.41.695.09 1.572.896 1.572h15.826c.806 0 1.307-.877.896-1.572l-7.912-13.39Zm-2.87-.636c.887-1.501 3.059-1.501 3.946 0l7.912 13.39c.903 1.528-.198 3.458-1.972 3.458H4.587c-1.774 0-2.875-1.93-1.973-3.457l7.913-13.391ZM12.5 7.708c.345 0 .625.28.625.625v5a.625.625 0 1 1-1.25 0v-5c0-.345.28-.625.625-.625Zm0 8.334c.345 0 .625.28.625.625v.166a.625.625 0 1 1-1.25 0v-.166c0-.346.28-.625.625-.625Z" fill="#18303F"/></g></svg>
